assets/images/icons/trekking.svg

<svg width="32" height="32" viewBox="0 0 32 32" fill="none" xmlns="http://www.w3.org/2000/svg">
<g clip-path="url(#clip0_242_6337)">
<path opacity="0.1" d="M0.223155 23.1618C-0.0589054 20.752 -0.098086 18.3874 0.248062 16.248C0.673696 13.6174 1.78493 10.6909 2.99894 8.07362C5.37163 2.95839 9.61911 1.16885 14.7912 0.362065C22.0007 -0.762522 31.9372 0.362091 32 9.08714C31.6383 12.2073 29.2517 20.8815 21.1951 21.5434C18.5313 21.7622 17.5348 24.4378 16.3612 27.5006C13.2729 35.5602 1.25575 31.9835 0.223155 23.1618Z" fill="#7FB51F"/>
<g clip-path="url(#clip1_242_6337)">
<path d="M17.4906 7.60623C18.3151 6.7817 18.3151 5.44486 17.4906 4.62033C16.666 3.79579 15.3292 3.79579 14.5047 4.62033C13.6801 5.44486 13.6801 6.7817 14.5047 7.60623C15.3292 8.43077 16.666 8.43077 17.4906 7.60623Z" fill="#7FB51F"/>
<path d="M22.2471 24.3205L21.8463 24.4305C21.6908 23.3562 20.6195 15.9587 20.3883 14.3615C21.1588 13.9298 20.9794 12.786 20.1323 12.594C20.0731 12.1849 20.0224 11.8353 19.9627 11.4229C19.9256 11.1668 19.6883 10.9892 19.4316 11.0262C19.1754 11.0633 18.9978 11.3011 19.0349 11.5573C19.0685 11.7895 19.1582 12.4086 19.1831 12.5809C18.7144 12.5881 17.158 12.6116 16.5977 12.6202L15.3363 10.7831L16.2995 11.6175L16.5587 10.9723C16.8523 10.2413 16.4977 9.4106 15.7666 9.11693L13.5219 8.21533L10.8507 14.866C10.5491 15.6168 9.70759 15.9542 8.98309 15.6632L8.87589 15.6202L9.57662 20.3059L8.28358 25.1322C8.11816 25.7494 8.50497 26.3838 9.13872 26.5127L4 27.5506V28.0001H28V22.8611L22.2471 24.3205ZM10.555 26.2267L9.98603 26.3416C10.1995 26.1966 10.3644 25.9779 10.4365 25.7091L11.7925 20.6479C11.8341 20.4931 11.8417 20.3311 11.8149 20.1731C11.7204 19.616 11.3762 17.5872 11.2289 16.7189L11.4713 16.8162L13.8149 20.4971V25.4207C13.8149 25.6781 13.9025 25.9151 14.0492 26.1038C13.0268 26.1397 11.6225 26.1891 10.555 26.2267ZM16 26.035L15.8556 26.0401C15.9744 25.8629 16.0436 25.6499 16.0436 25.4206V20.1723C16.0436 19.9642 15.9853 19.7556 15.8693 19.5738L14.1736 16.9106C14.394 16.3616 14.9172 15.0591 15.0634 14.6951C14.9645 14.6028 14.8355 14.4563 14.7864 14.3301L13.9177 12.0975L15.3106 14.1261C15.4883 14.385 15.7894 14.5458 16.1139 14.5412L19.4597 14.4904C19.4936 14.7245 20.8564 24.1353 20.9353 24.6805C19.908 24.9625 17.0395 25.7498 16 26.035Z" fill="#7FB51F"/>
<path d="M7.52076 14.4705L9.19101 15.1413C9.63866 15.3211 10.1472 15.104 10.327 14.6564L13.0852 7.78919C13.265 7.34158 13.0479 6.83298 12.6003 6.65322L10.9301 5.98234C10.4825 5.80258 9.97387 6.0197 9.7941 6.46726L7.03583 13.3345C6.85602 13.7821 7.07315 14.2907 7.52076 14.4705Z" fill="#7FB51F"/>
</g>
</g>
<defs>
<clipPath id="clip0_242_6337">
<rect width="32" height="32" fill="white"/>
</clipPath>
<clipPath id="clip1_242_6337">
<rect width="24" height="24" fill="white" transform="translate(4 4)"/>
</clipPath>
</defs>
</svg>

<svg xmlns="http://www.w3.org/2000/svg" width="32" height="32" fill="none"><g fill="#7FB51F" clip-path="url(#a)"><path d="M.223 23.162c-.282-2.41-.321-4.775.025-6.914.426-2.63 1.537-5.557 2.75-8.174C5.373 2.958 9.62 1.169 14.792.362 22.001-.763 31.937.362 32 9.087c-.362 3.12-2.748 11.795-10.805 12.456-2.664.22-3.66 2.895-4.834 5.958-3.088 8.06-15.105 4.482-16.138-4.34" opacity=".1"/><g clip-path="url(#b)"><path d="M17.49 7.606a2.111 2.111 0 1 0-2.985-2.986 2.111 2.111 0 0 0 2.986 2.986m4.756 16.714-.4.11-1.459-10.068c.77-.432.591-1.576-.256-1.768l-.17-1.171a.469.469 0 1 0-.927.134l.148 1.024c-.469.007-2.025.03-2.585.04l-1.262-1.838.963.835.26-.646a1.427 1.427 0 0 0-.792-1.855l-2.245-.902-2.671 6.651a1.433 1.433 0 0 1-1.868.797l-.107-.043.7 4.686-1.292 4.826a1.114 1.114 0 0 0 .855 1.38L4 27.552V28h24v-5.14zm-11.692 1.907-.569.115a1.1 1.1 0 0 0 .45-.633l1.357-5.061a1.1 1.1 0 0 0 .022-.475l-.586-3.454.242.097 2.344 3.681v4.924c0 .257.088.494.234.683zM16 26.035l-.144.005c.118-.177.188-.39.188-.62v-5.248c0-.208-.059-.416-.175-.598l-1.695-2.663.89-2.216c-.1-.092-.229-.239-.278-.365l-.868-2.232 1.393 2.028a.96.96 0 0 0 .803.415l3.346-.05 1.475 10.19z"/><path d="m7.52 14.47 1.671.671a.873.873 0 0 0 1.136-.485l2.758-6.867a.873.873 0 0 0-.485-1.136l-1.67-.67a.873.873 0 0 0-1.136.484l-2.758 6.868a.873.873 0 0 0 .485 1.135"/></g></g><defs><clipPath id="a"><path fill="#fff" d="M0 0h32v32H0z"/></clipPath><clipPath id="b"><path fill="#fff" d="M4 4h24v24H4z"/></clipPath></defs></svg>
